img/icon-arr6.svg

<svg width="75" height="101" viewBox="0 0 75 101" fill="none" xmlns="http://www.w3.org/2000/svg">
<g filter="url(#filter0_f_60_2437)">
<path fill-rule="evenodd" clip-rule="evenodd" d="M66.4029 5.36046C66.7657 4.76226 66.6887 3.97224 66.1719 3.45547C65.5644 2.84818 64.5801 2.84818 63.9726 3.45547L3.45533 63.9726C2.90381 64.5244 2.85326 65.3877 3.30397 65.9963C3.12229 66.7305 3.49939 67.507 4.21963 67.805C5.74695 68.4372 7.30226 68.9731 8.87078 69.4428L7.60212 70.7112C7.0506 71.2629 7.00006 72.1263 7.45076 72.7348C7.26908 73.469 7.64618 74.2455 8.36643 74.5436C12.169 76.117 16.1443 77.0967 20.0689 77.931C21.2277 78.1772 22.3758 78.4099 23.5147 78.6406C26.2775 79.2004 28.9861 79.7494 31.659 80.4559C32.1732 80.5919 32.6884 80.7288 33.2044 80.8656C36.2966 81.6864 39.4199 82.5155 42.5671 83.2332C42.8224 83.2915 43.1031 83.4247 43.546 83.674C43.5968 83.7025 43.6512 83.7336 43.709 83.7666C44.0859 83.9817 44.5982 84.274 45.143 84.4733C45.7938 84.7115 46.4371 84.9875 47.1208 85.2838L47.2364 85.3338C47.8742 85.6103 48.5507 85.9037 49.245 86.1663C50.247 86.5454 51.2393 86.9541 52.2561 87.373L52.5248 87.4836C53.6276 87.9374 54.7592 88.3998 55.9135 88.8218C58.8819 89.9069 61.7232 91.5566 64.0319 93.6875L64.1299 93.7779C64.662 94.2686 65.2905 94.8486 65.869 95.454C66.5058 96.1206 66.9676 96.7025 67.1801 97.1278C67.5642 97.896 68.4983 98.2075 69.2665 97.8234C69.3479 97.7827 69.4243 97.7358 69.4951 97.6834C69.6143 97.7127 69.7387 97.7283 69.867 97.7283C70.7259 97.7283 71.422 97.0321 71.422 96.1732V13.4966C71.422 12.8826 71.0662 12.3518 70.5497 12.0991C70.9125 11.5007 70.8355 10.7108 70.3187 10.194C69.7112 9.58671 68.7269 9.58671 68.1194 10.194L67.2752 11.0382V6.75803C67.2752 6.14412 66.9194 5.61331 66.4029 5.36046ZM68.3119 93.5115V14.3998L67.2752 15.4365V89.4347C67.2752 90.2936 66.5791 90.9898 65.7202 90.9898C65.7075 90.9898 65.6951 90.9895 65.6824 90.9892C65.8373 91.125 65.9903 91.2627 66.1413 91.4021L66.2502 91.5024C66.7727 91.9845 67.4686 92.6262 68.1178 93.3057C68.1821 93.3729 68.2469 93.4415 68.3119 93.5115ZM60.3517 87.3802C60.2252 87.2626 60.1018 87.1488 59.9831 87.0394L59.8851 86.949C57.5764 84.818 54.7351 83.1684 51.7668 82.0832C50.6124 81.6613 49.4808 81.1989 48.378 80.7451L48.1093 80.6344C47.0925 80.2156 46.1002 79.8069 45.0982 79.4277C44.4039 79.1652 43.7274 78.8718 43.0896 78.5952L42.974 78.5452C42.2903 78.249 41.647 77.973 40.9962 77.7348C40.4515 77.5355 39.9391 77.2431 39.5622 77.028C39.5044 76.9951 39.45 76.964 39.3992 76.9355C38.9563 76.6862 38.6756 76.5529 38.4203 76.4946C35.2731 75.777 32.1498 74.9479 29.0576 74.1271C28.5416 73.9902 28.0264 73.8534 27.5122 73.7173C24.8393 73.0108 22.1307 72.4619 19.3679 71.9021C18.2291 71.6714 17.0809 71.4387 15.9221 71.1925C14.7286 70.9387 13.5302 70.6715 12.3336 70.3784L10.6197 72.092C13.8381 73.3169 17.2253 74.1468 20.7158 74.8888C21.8101 75.1215 22.9206 75.3465 24.039 75.5733C26.8386 76.1406 29.6879 76.7178 32.4538 77.4492C32.9738 77.5865 33.4924 77.7242 34.0105 77.8618L34.0115 77.862C37.106 78.6834 40.1697 79.4964 43.2586 80.2008C43.9941 80.3688 44.6185 80.7088 45.0712 80.9636C45.1425 81.0038 45.2099 81.0419 45.2737 81.0779C45.6676 81.301 45.9301 81.4495 46.2116 81.5524C46.9588 81.8259 47.6796 82.1363 48.3576 82.43L48.4545 82.4722C49.1087 82.7555 49.7224 83.0217 50.3457 83.2575C51.392 83.6536 52.4253 84.0791 53.4345 84.4948L53.7087 84.6076C54.8131 85.0622 55.8923 85.5025 56.9813 85.9009C58.123 86.3181 59.2528 86.8119 60.3517 87.3802ZM64.1651 14.1484V7.66133L6.4729 65.3535C8.07252 65.9623 9.71362 66.4734 11.3887 66.9249L64.1651 14.1484ZM14.9212 67.7905C15.4678 67.9134 16.017 68.0331 16.569 68.1503C17.663 68.383 18.7733 68.608 19.8917 68.8345L19.8922 68.8347C22.6918 69.4021 25.5411 69.9792 28.3071 70.7106C28.8202 70.8462 29.3326 70.9823 29.844 71.1181L29.8559 71.1212L29.8621 71.1227L29.8637 71.1232L29.8644 71.1235C32.9592 71.9448 36.0229 72.7579 39.1118 73.4623C39.8473 73.6302 40.4717 73.9703 40.9244 74.225C40.9778 74.2551 41.0289 74.2839 41.0779 74.3116L41.1269 74.3393C41.5208 74.5625 41.7834 74.711 42.0648 74.8139C42.812 75.0873 43.5328 75.3978 44.2108 75.6915L44.3077 75.7337C44.9619 76.017 45.5756 76.2831 46.1989 76.519C47.2452 76.915 48.2785 77.3406 49.2877 77.7563L49.562 77.869C50.6663 78.3236 51.7455 78.764 52.8346 79.1623C56.1414 80.3711 59.3492 82.2216 61.9946 84.6636L62.1034 84.7639C62.6259 85.2459 63.3218 85.8876 63.971 86.5672C64.0353 86.6343 64.1001 86.703 64.1651 86.773V18.5466L14.9212 67.7905Z" fill="white"/>
</g>
<defs>
<filter id="filter0_f_60_2437" x="0" y="0" width="74.4219" height="100.988" filterUnits="userSpaceOnUse" color-interpolation-filters="sRGB">
<feFlood flood-opacity="0" result="BackgroundImageFix"/>
<feBlend mode="normal" in="SourceGraphic" in2="BackgroundImageFix" result="shape"/>
<feGaussianBlur stdDeviation="1.5" result="effect1_foregroundBlur_60_2437"/>
</filter>
</defs>
</svg>

<svg width="75" height="101" fill="none" xmlns="http://www.w3.org/2000/svg"><g filter="url(#a)"><path fill-rule="evenodd" clip-rule="evenodd" d="M66.403 5.36a1.556 1.556 0 0 0-2.43-1.905L3.455 63.973a1.556 1.556 0 0 0-.151 2.023c-.182.735.195 1.511.916 1.809a48.577 48.577 0 0 0 4.65 1.638L7.603 70.71a1.556 1.556 0 0 0-.151 2.024c-.182.734.195 1.51.915 1.809 3.803 1.573 7.778 2.553 11.703 3.387 1.159.246 2.307.479 3.446.71 2.762.56 5.471 1.108 8.144 1.815l1.545.41c3.093.82 6.216 1.65 9.363 2.367.255.058.536.192.979.441l.163.093c.377.215.89.507 1.434.706.65.239 1.294.514 1.978.81l.115.05c.638.277 1.315.57 2.009.833 1.002.38 1.994.788 3.011 1.207l.269.11c1.103.454 2.234.917 3.389 1.339 2.968 1.085 5.81 2.735 8.118 4.865l.098.09c.532.492 1.16 1.072 1.739 1.677.637.667 1.099 1.249 1.311 1.674a1.555 1.555 0 0 0 2.315.555 1.555 1.555 0 0 0 1.927-1.51V13.497c0-.614-.356-1.145-.872-1.398a1.556 1.556 0 0 0-2.43-1.905l-.845.844v-4.28c0-.614-.356-1.145-.872-1.398Zm1.909 88.151V14.4l-1.037 1.037v73.998c0 .859-.696 1.555-1.555 1.555h-.038c.155.135.308.273.46.412l.108.1c.523.483 1.219 1.124 1.868 1.804l.194.206Zm-7.96-6.13-.369-.342-.098-.09c-2.309-2.131-5.15-3.78-8.118-4.866a91.01 91.01 0 0 1-3.389-1.338l-.269-.11c-1.017-.42-2.009-.828-3.01-1.207-.695-.263-1.372-.556-2.01-.833l-.115-.05a36.961 36.961 0 0 0-1.978-.81c-.544-.2-1.057-.492-1.434-.707l-.163-.093c-.443-.249-.723-.382-.979-.44-3.147-.718-6.27-1.547-9.362-2.368l-1.546-.41c-2.673-.706-5.381-1.255-8.144-1.815-1.139-.23-2.287-.463-3.446-.71a119.914 119.914 0 0 1-3.588-.814l-1.714 1.714c3.218 1.225 6.605 2.055 10.096 2.797 1.094.233 2.205.458 3.323.684 2.8.568 5.649 1.145 8.415 1.876l1.556.413h.002c3.094.821 6.158 1.634 9.247 2.339.735.168 1.36.508 1.812.763l.203.114c.394.223.656.371.938.474a39.91 39.91 0 0 1 2.146.878l.097.042c.654.284 1.267.55 1.89.785 1.047.397 2.08.822 3.09 1.238l.274.113c1.104.454 2.183.894 3.272 1.293 1.142.417 2.272.91 3.37 1.48Zm3.813-73.233V7.661L6.473 65.353c1.6.61 3.24 1.12 4.916 1.572l52.776-52.777ZM14.921 67.79c.547.123 1.096.243 1.648.36 1.094.233 2.204.458 3.323.684 2.8.568 5.65 1.145 8.415 1.877l1.537.407.012.003.006.002h.002c3.095.822 6.159 1.635 9.248 2.34.735.167 1.36.507 1.812.762l.154.087.049.027c.394.224.656.372.938.475.747.273 1.468.584 2.146.878l.097.042c.654.283 1.268.55 1.89.785 1.047.396 2.08.822 3.09 1.237l.274.113a88.25 88.25 0 0 0 3.273 1.293c3.306 1.21 6.514 3.06 9.16 5.502l.108.1c.523.482 1.219 1.124 1.868 1.803.064.067.13.136.194.206V18.547L14.921 67.79Z" fill="#fff"/></g><defs><filter id="a" x="0" y="0" width="74.422" height="100.988" filterUnits="userSpaceOnUse" color-interpolation-filters="sRGB"><feFlood flood-opacity="0" result="BackgroundImageFix"/><feBlend in="SourceGraphic" in2="BackgroundImageFix" result="shape"/><feGaussianBlur stdDeviation="1.5" result="effect1_foregroundBlur_60_2437"/></filter></defs></svg>
